packages/core/src/svgs/tokens/mono/FOUR.svg

<svg width="24" height="24" viewBox="0 0 24 24" fill="none" xmlns="http://www.w3.org/2000/svg">
<path d="M9.33252 12.0006L11.9992 11.3339V8.00061L11.3325 8.33395L9.33252 11.3339V12.0006Z" fill="white"/>
<path fill-rule="evenodd" clip-rule="evenodd" d="M2 4.94001L22 2V20.2334L2 22V4.94001ZM14.0001 11.0006V6.00056H11.3334L6.66668 12.0006V14.0005L12.0001 13.334V18.0007L14.0001 17.3339V13.0006L16.6668 12.3339V10.3339L14.0001 11.0006Z" fill="white"/>
</svg>

<svg xmlns="http://www.w3.org/2000/svg" width="24" height="24" fill="none" viewBox="0 0 24 24">
    <path fill="#fff" d="m9.333 12 2.666-.666V8l-.667.333-2 3z"/>
    <path fill="#fff" fill-rule="evenodd" d="M2 4.94 22 2v18.233L2 22zM14 11V6h-2.667l-4.666 6v2L12 13.335v4.667l2-.667V13l2.667-.667v-2z" clip-rule="evenodd"/>
</svg>
